Obsidian/status/16s/network-error.svg

<svg height="16" width="16" xmlns="http://www.w3.org/2000/svg"><path d="m2 2s-1 0-1 1v9c0 1 1 1 1 1h2l1 1h6v-3l-1 1h-4l-1-1h-2v-7h10v1h2v-2c0-1-1-1-1-1z" fill="#a4a4a4" opacity=".3"/><path d="m12 6v4l.25 2h1.5l.25-2v-4zm0 7v2h2v-2z" fill="#5294e2"/></svg>

<svg xmlns="http://www.w3.org/2000/svg" width="16" height="16" version="1.1">
 <defs>
  <style id="current-color-scheme" type="text/css">
   .ColorScheme-Text { color:#a4a4a4; } .ColorScheme-Highlight { color:#5294e2; }
  </style>
 </defs>
 <path style="opacity:0.3;fill:currentColor" class="ColorScheme-Text" d="M 2,2 C 2,2 1,2 1,3 V 12 C 1,13 2,13 2,13 H 4 L 5,14 H 11 V 11 L 10,12 H 6 L 5,11 H 3 V 4 H 13 V 5 H 15 V 3 C 15,2 14,2 14,2 Z"/>
 <path style="fill:currentColor" class="ColorScheme-Highlight" d="M 12,6 V 10 L 12.25,12 H 13.75 L 14,10 V 6 Z M 12,13 V 15 H 14 V 13 Z"/>
</svg>
